X:1
T: Bill Zobel
C:Muriel A Johnstone
R:Strathspey
%Q:128
K:D
M:4/4
L:1/16
|:f3g|af3 e3d Bd3 d3B|A3B df3 e4 e2fg|af3 e3d Bd3 d3B|AF3 E3D D4 f3g|
af3 e3d Bd3 d3B|A3B df3 e6d2|((3Bcd) A3F E3D EF3|Dd3 F3E D4D4|
DB3 B3A Bd3 ((3ABd)|e3d fd3 A8|DD3 d3A BA3 ((3Bcd)|ed3 f3e d4d4|
DB3 B3A B3d ((3ABd)|e3d fd3 A4 g4|((3fga) ((3gfe) ((3dcB) ((3ABc)|dD3 F3E D4:|
